images/chsb.svg

<svg height="250" viewBox="0 0 250 250" width="250" xmlns="http://www.w3.org/2000/svg"><path d="m154.804688 0-20.507813 11.636719v98.863281l11.199219 6.363281v-75.289062l38.441406 21.820312.039062-.015625 7.464844 4.230469 6.230469-3.515625v-5.941406l-52.175781-29.578125v-10.292969l9.308594-5.28125 54.035156 30.679688v27.300781l-25.941406 14.644531-.875-.433594c-1.578126-.777344-3.214844-1.175781-4.859376-1.175781-6.171874 0-11.195312 5.089844-11.195312 11.339844s5.023438 11.34375 11.195312 11.34375c5.726563 0 10.488282-4.378907 11.078126-10.183594l.097656-.980469 26.179687-14.777344 24.28125 13.785157v60.992187l-24.308593 13.785156-98.789063-56.101562v-101.574219l-20.507813-11.644531-65.234374 37.035156v33.792969l-29.960938 16.988281v74.285156l29.960938 17.007813v33.855469l65.234374 37.035156 20.507813-11.640625v-99.078125l-11.199219-6.355469v75.503907l-45.945312-26.039063-6.234375 3.515625v5.945312l52.179687 29.578126v10.285156l-9.308594 5.285156-54.035156-30.679688v-27.308593l25.941406-14.632813.871094.429688c1.585938.777344 3.214844 1.175781 4.859375 1.175781 6.171875 0 11.199219-5.085937 11.199219-11.339844 0-6.257812-5.027344-11.339843-11.199219-11.339843-5.722656 0-10.480469 4.375-11.074219 10.183593l-.09375.976563-26.1875 14.777344-24.28125-13.785157v-60.992187l24.3125-13.78125 98.789063 56.09375v101.582031l20.507813 11.640625 65.234374-37.035156v-33.792969l29.960938-16.988281v-74.285156l-29.960938-17.003907v-33.859375zm-113.644532 43.679688 54.035156-30.679688 9.308594 5.285156v10.285156l-63.34375 35.90625zm5.808594 30.511718 57.535156-32.625v65.292969zm98.527344 68.945313 57.539062 32.675781-57.539062 32.621094zm0 88.578125v-10.28125l63.34375-35.914063v20.800781l-54.035156 30.679688zm0 0" fill="#01c38d" fill-rule="evenodd"/></svg>

<svg xmlns="http://www.w3.org/2000/svg" xmlns:xlink="http://www.w3.org/1999/xlink" width="250px" height="250px" viewBox="0 0 250 250" version="1.1">
<g id="surface1">
<path style=" stroke:none;fill-rule:evenodd;fill:rgb(0.392157%,76.47059%,55.29412%);fill-opacity:1;" d="M 154.804688 0 L 134.296875 11.636719 L 134.296875 110.5 L 145.496094 116.863281 L 145.496094 41.574219 L 183.9375 63.394531 L 183.976562 63.378906 L 191.441406 67.609375 L 197.671875 64.09375 L 197.671875 58.152344 L 145.496094 28.574219 L 145.496094 18.28125 L 154.804688 13 L 208.839844 43.679688 L 208.839844 70.980469 L 182.898438 85.625 L 182.023438 85.191406 C 180.445312 84.414062 178.808594 84.015625 177.164062 84.015625 C 170.992188 84.015625 165.96875 89.105469 165.96875 95.355469 C 165.96875 101.605469 170.992188 106.699219 177.164062 106.699219 C 182.890625 106.699219 187.652344 102.320312 188.242188 96.515625 L 188.339844 95.535156 L 214.519531 80.757812 L 238.800781 94.542969 L 238.800781 155.535156 L 214.492188 169.320312 L 115.703125 113.21875 L 115.703125 11.644531 L 95.195312 0 L 29.960938 37.035156 L 29.960938 70.828125 L 0 87.816406 L 0 162.101562 L 29.960938 179.109375 L 29.960938 212.964844 L 95.195312 250 L 115.703125 238.359375 L 115.703125 139.28125 L 104.503906 132.925781 L 104.503906 208.429688 L 58.558594 182.390625 L 52.324219 185.90625 L 52.324219 191.851562 L 104.503906 221.429688 L 104.503906 231.714844 L 95.195312 237 L 41.160156 206.320312 L 41.160156 179.011719 L 67.101562 164.378906 L 67.972656 164.808594 C 69.558594 165.585938 71.1875 165.984375 72.832031 165.984375 C 79.003906 165.984375 84.03125 160.898438 84.03125 154.644531 C 84.03125 148.386719 79.003906 143.304688 72.832031 143.304688 C 67.109375 143.304688 62.351562 147.679688 61.757812 153.488281 L 61.664062 154.464844 L 35.476562 169.242188 L 11.195312 155.457031 L 11.195312 94.464844 L 35.507812 80.683594 L 134.296875 136.777344 L 134.296875 238.359375 L 154.804688 250 L 220.039062 212.964844 L 220.039062 179.171875 L 250 162.183594 L 250 87.898438 L 220.039062 70.894531 L 220.039062 37.035156 Z M 41.160156 43.679688 L 95.195312 13 L 104.503906 18.285156 L 104.503906 28.570312 L 41.160156 64.476562 Z M 46.96875 74.191406 L 104.503906 41.566406 L 104.503906 106.859375 Z M 145.496094 143.136719 L 203.035156 175.8125 L 145.496094 208.433594 Z M 145.496094 231.714844 L 145.496094 221.433594 L 208.839844 185.519531 L 208.839844 206.320312 L 154.804688 237 Z M 145.496094 231.714844 "/>
</g>
</svg>
